X:1
T:Title
%%score ( 1 2 3 ) { ( 4 6 ) | 5 }
L:1/8
Q:1/4=92
M:4/4
K:Eb
V:1 treble nm="Grand Piano, Soprano"
V:2 treble 
V:3 treble 
V:4 bass nm="Choir Pad, Victory over Sin"
V:6 bass 
V:5 bass 
V:1
 E2 G>E B2 [EA][EG] | [Ec]>[Ec] [Ec][Fc] [GB]2 z2 | [FA]2 [GB]>[FA] [EG]2 [Ge]>[Ge] | %3
w: By~James~Austin~Butterfield * * * * *|||
 dB [Ec]>[DB] [DB]4 | [DB]2 [Ec]>[Fd] [Ee]2 [EG]>[EG] | [Ec]2 [Ec]>[Ec] [EB]2 z2 | %6
w: |||
 [Ge]2 [Ad]>[Ac] B2 [Ec]>[EA] | [EG]2 [DG]>[DF] E4 | z4 z e z2 | B4 B2 z2 | %10
w: ||||
 [FA]2 [GB]2 [EG]2 [EB]2 | [DF]6 z2 | E2 G>E B2 [EA][EG] | [Ec]>[Ec] [Ec][Fc] [GB]2 z2 | %14
w: ||||
 [Ge]2 [Ad]>[Ac] B2 [Ec]>[EA] | [EG]>[EG] [DG][DF] E4- | E2 z2 z4 |] %17
w: |||
V:2
 x8 | x8 | x8 | F2 z2 z4 | x8 | x8 | x8 | x8 | c6 z2 | E2 E>E E E2 [GB] | x8 | x8 | x8 | x8 | x8 | %15
 x8 | x8 |] %17
V:3
 x8 | x8 | x8 | x8 | x8 | x8 | x8 | x8 | E2 E>E E.E- .[Ec]2 | x8 | x8 | x8 | x8 | x8 | x8 | x8 | %16
 x8 |] %17
V:4
 E,2 G,>E, B,2 CB, | A,>A, A,A, G,2 z2 | B,2 B,>B, B,2 C>C | B,2 =A,>B, B,4 | B,2 E>B, B,2 B,>B, | %5
 A,2 A,>A, G,2 z2 | B,2 D>D E2 E>C | B,2 A,>A, G,4 | A,2 A,>A, A, .A,3 | %9
 G,2 G,>G, G, G,2[K:treble] E | D2 D2 E2 B,2 | z4 B,2 z2 | E,2 G,>E, B,2 CB, | A,>A, A,A, G,2 z2 | %14
 B,2 D>D E2 E>C | B,>B, A,A, G,4- | G,2 z2 z4 |] %17
V:5
 z4 z2 E,E, | A,,>B,, C,D, E,2 z2 | D,2 D,>D, E,2 C,>C, | F,2 F,>B,, B,,4 | z2 A,>A, G,2 E,>E, | %5
 A,,2 A,,>A,, E,2 z2 | E,2 F,>F, G,2 A,>A, | z2 B,,>B,, E,4 | A,,2 A,,>A,, A,, .A,,3 | %9
 E,2 E,>E, E, E,2 E, | B,,2 B,,2 E,2 G,2 | z8 | z4 z2 E,E, | A,,>B,, C,D, E,2 z2 | %14
 E,2 F,>F, G,2 A,>A, | z2 C,C, E,4- | E,2 z2 z4 |] %17
V:6
 x8 | x8 | x8 | x8 | x8 | x8 | x8 | x8 | x8 | x7[K:treble] x | x8 | B,2 B,2 z A,G,F, | x8 | x8 | %14
 x8 | x8 | x8 |] %17

